X: 6652
T: Cedars Of Lebanon, The
R: reel
M: 4/4
K: Dmajor
C3D|:EA, (3A,A,A, EA,C(E|DE)FA dcde|fd (3ddd AFDF|GGFG EGFG|
EA, (3A,A,A, EA,CE|DEFA dcde|fd (3ddd AFDF|1 GBAG FDDF:|2 GBAG FDDA||
|:~d3 e fdBd|Adfb afdf|e^def ~g3 a|bagf edce|
~d3 e fdBd|Ad (3ddB AFDF|GFGA B(d {e}dB)|1 AFEG FDDA:|2 AFEG FDDF||

